X:1
T:Cuban Independence.
T:Cuban Independence.
T:MARCH AND TWO STEP.
T:By C. D. HENNINGER.
T:Arr. by C. S. SHIELDS.
T:Copyright 1898 by C. D. Henninger.
T:Copyright 1898 by C. D. Henninger.
T:Copyright 1898 by C. D. Henninger.
T:Copyright 1898 by C. D. Henninger.
C:By C. D. HENNINGER.
Z:Copyright 1898 by C. D. Henninger.
%%score { 1 | 2 }
L:1/8
Q:1/4=170
M:6/8
K:G
V:1 treble nm="Piano" snm="Pno."
V:2 bass 
V:1
"^Intro."!ff! GzG/G/ GDG | BzB/B/ BGB | dzB dBG | D2 z!p! G2 A |: %4
"^March." [DGB]2 [DGB] [^CG^A]2 [CGA] | [DGB]3 DGB | [DBd]2 [DBd] [E_B^c]2 [EBc] | %7
 [D=Bd]3!f! z !>!A!>!B | !>!c3 z !>!A!>!B | !>!c3 z !>!A!>!B | !>!c!>!B!>!A !>!G!>!F!>!E | %11
 !>!D2 z !>![DFAd]3 |!p! [DGB]2 [DGB] [^CG^A]2 [CGA] | [DGB]3 DGB | [DBd]2 [DBd] [E_B^c]2 [EBc] | %15
 [D=Bd]3 z2!f! B | A^GA ^c2 B | A^GA ^c2 B | A^GA ^AB^c |1 d2 z !>![dfad']2 z :|2 %20
 d2 z !>![dfad']2 z ||!ff! [Dd]2!<(! [^D^d] [Ee]2 [^E^e]!<)! | [Ff]2 [Gg] [^G^g]2 [Aa] | %23
!>(! [Bb]2 [Aa] [Gg]2 [Ff] | [Ee]2 [_E_e] [Dd]2!>)!!mf! c | e2 z !>![Fc]3 | z2 c cBA | %27
 [GBe]2 z !>![GBd]3 | z2 G GFE |!ff! [Dd]2!<(! [^D^d] [Ee]2 [^E^e] | [Ff]2 [Gg]!<)! [^G^g]2 [Aa] | %31
!>(! [Bb]2 [Aa] [Gg]2 [Ff]!>)! | [Gg]2 [Ff] [Gg]2 [Aa] | [_B_b]3 z [Gg][Aa] | %34
 [=B=b]2 [ee'] [dd'][Bb][Gg] | [Dd][^C^c][Dd] [^D^d][Ee][Ff] | [Gg]2 z [GBdg]3 || %37
 [DGB]2 [DGB] [^CG^A]2 [CGA] | [DGB]3 DGB | [DBd]2 [DBd] [E_B^c]2 [EBc] | [D=Bd]3!f! z !>!A!>!B | %41
 !>!c3 z !>!A!>!B | !>!c3 z !>!A!>!B | !>!c!>!B!>!A !>!G!>!F!>!E | !>!D2 z !>![DFAd]3 | %45
!p! [DGB]2 [DGB] [^CG^A]2 [CGA] | [DGB]3 DGB | [DBd]2 [DBd] [E_B^c]2 [EBc] | [D=Bd]3 z!f! BA | %49
 [EG]3 z FE | DGB d2 c | [Bdb]3 [Aca]3 | [GBg]3 z2 z ||[K:C][M:6/8]!p! [EG=e]6 | %54
 [_E^F_e]3- [EFe]2 [=FA=f] | [=EG=e]6 | [CEc]3 [Cc][Ee][Gg] | [cac']3 [cac']3 | [Bgb]3 [Afa]3 | %59
 [Geg]6- | [Geg]3 [Geg]3 | [EGe]6 | [_E^F_e]3- [EFe]2 [=FA=f] | [EGe]6 | [CEc]3 [EGe]3 | %65
 [D^Fd]3 [cac']3 | [B^fb]3 [Acfa]3 |!<(! [GBg]6-!<)! |!>(! [GBg]6!>)! | [EGe]6 | %70
 [_E^F_e]3- [EFe]2 [=FA=f] | [EGe]6 | [CEc]3 [Cc][Ee][Gg] | [cac']3 [cac']3 | [Bgb]3 [Afa]3 | %75
 [Geg]6- | [Geg]2 [Geg] [^F_e^f]2 [G=eg] | [cac']3 [cac']3 | [Bgb]3- [Bgb]2 [Afa] | [Afa]3 [Geg]3 | %80
 [EGe]3- [EGe]2 [GBg] | [GBg]3 [FAf]3 | [EGe]3 [DFd]3 | [CEc]6- | [CEc]3!ff! z2 z || %85
 z2 !>![cc'] !>![cc']!>![cc']!>![Bb] | !>![Aa]3 z2 z | z2 !>![cc'] !>![cc']!>![cc']!>![Bb] | %88
 !>![Aa]3 z2 z | z2 !>![cc'] !>![cc']!>![cc']!>![Bb] | !>![Aa]3 z2 z | %91
 z2 !>![_e_e'] !>![ee']!>![ee']!>![dd'] | !>![cc']3 z2 z | !>![ee']2 !>![^d^d'] !>![ee']3 | %94
 !>![Ee]2 !>![^D^d] !>![Ee]3 | !>![ee']2 !>![^d^d'] !>![ee']3 | !>![Ee]2 !>![^D^d] !>![Ee]3 | %97
!<(! !>!E!>!=F!>!^F !>!G!>!^G!>!A | !>!^A!>!B!>!=c!<)! !>!^c!>!d!>!^d | !>!e z z !>![gbg']3 | z6 | %101
!fff!"^Grandioso." [EGe]6 | [_E^F_e]3- [EFe]2 [=FA=f] | [=EG=e]6 | [CEc]3 [Cc][Ee][Gg] | %105
 [cac']3 [cac']3 | [Bgb]3 [Afa]3 | [Geg]6- | [Geg]3 [Geg]3 | [EGe]6 | [_E^F_e]3- [EFe]2 [=FA=f] | %111
 [EGe]6 | [CEc]3 [EGe]3 | [D^Fd]3 [cac']3 | [B^fb]3 [Acfa]3 |!<(! [GBg]6-!<)! |!>(! [GBg]6!>)! | %117
 [EGe]6 | [_E^F_e]3- [EFe]2 [=FA=f] | [EGe]6 | [CEc]3 [Cc][Ee][Gg] | [cac']3 [cac']3 | %122
 [Bgb]3 [Afa]3 | [Geg]6- | [Geg]2 [Geg] [^F_e^f]2 [G=eg] | [cac']3 [cac']3 | [Bgb]3- [Bgb]2 [Afa] | %127
 [Afa]3 [Geg]3 | [EGe]3- [EGe]2 [GBg] | [GBg]3 [FAf]3 | [EGe]3 [DFd]3 | [CEc]6- | %132
 [CEc]3 !>![cegc']2 z |] %133
V:2
 G,zG,/G,/ G,D,G, | B,zB,/B,/ B,G,B, | DzB, DB,G, | D,2 z z2 z |: %4
 [D,G,B,]2 [D,G,B,] [_E,A,^B,]2 [E,A,B,] | [D,G,B,]3 z2 z | %6
 [D,G,B,]2 [D,G,B,] [E,G,_B,]2 [E,G,B,] | [C,G,=B,]3 z2"^cres." z | %8
 z !>![C,C]!>![B,,B,] !>![A,,A,]3 | z !>![C,C]!>![B,,B,] !>![A,,A,]3 | %10
 !>![C,C]!>![B,,B,]!>![A,,A,]"^dim." !>![G,,G,]!>![F,,F,]!>![E,,E,] | !>![D,,D,]2 z !>![D,F,A,C]3 | %12
 [D,G,B,]2 [D,G,B,] [_E,A,^B,]2 [E,A,B,] | [D,G,B,]3 z2 z | %14
 [D,G,B,]2 [D,G,B,] [E,G,_B,]2 [E,G,B,] | [C,G,=B,]3 z2 z | E,2 [G,A,^C] [G,A,C]2 [G,A,C] | %17
 E,2 [G,A,^C] [G,A,C]2 [G,A,C] | E,2 [G,A,^C] A,,2 [G,A,C] |1 [D,F,A,D]2 z !>![D,,D,]2 z :|2 %20
 [D,F,A,D]2 z !>![D,,D,]2 z || [D,,D,]2 [F,A,C] D,2 [F,A,C] | [D,,D,]2 [F,A,C] D,2 [F,A,C] | %23
 [G,,G,]2 [G,B,] D,2 [G,B,] | [G,,G,]2 [G,B,] D,2 [G,B,] | D,2 [F,A,C] [F,A,C]2 [F,A,C] | %26
 D,2 [F,A,C] D,2 [F,A,C] | [G,,G,]2 [D,G,B,] [D,G,B,]2 [D,G,B,] | [G,,G,]2 z z2 z | %29
 [D,,D,]2 [F,A,C] D,2 [F,A,C] | [D,,D,]2 [F,A,C] D,2 [F,A,C] | [G,,G,]2 [G,B,] D,2 [G,B,] | %32
 [G,,G,]2 [E,G,B,] D,2 [G,B,D] | [_E,G,_B,_D]3 z2 z | z6 | %35
 [D,,D,][^C,,^C,][D,,D,] [=C,,=C,][B,,,B,,][A,,,A,,] | [G,,,G,,]2 z [D,G,B,]3 || %37
 [D,G,B,]2 [D,G,B,] [_E,A,^B,]2 [E,A,B,] | [D,G,B,]3 z2 z | %39
 [D,G,B,]2 [D,G,B,] [E,G,_B,]2 [E,G,B,] | [C,G,=B,]3 z2"^cres." z | %41
 z !>![C,C]!>![B,,B,] !>![A,,A,]3 | z !>![C,C]!>![B,,B,] !>![A,,A,]3 | %43
 !>![C,C]!>![B,,B,]!>![A,,A,] !>![G,,G,]!>![F,,F,]!>![E,,E,] | !>![D,,D,]2 z !>![D,F,A,C]3 | %45
 [D,G,B,]2 [D,G,B,] [_E,A,^B,]2 [E,A,B,] | [D,G,B,]3 z2 z | %47
 [D,G,B,]2 [D,G,B,] [E,G,_B,]2 [E,G,B,] | [C,G,=B,]3 z2 x | [C,,C,]2 [G,C] E,2 [G,C] | %50
 [G,,,G,,]2 [G,B,] D,2 [F,A,C] | [G,,G,]2 [G,B,] [D,,D,]2 [F,A,C] | [G,B,]3 z2 z || %53
[K:C][M:6/8] [C,,C,]2 [G,C] E,2 [G,C] | C,2 [_E,^F,A,] [E,F,A,]2 z | [C,,C,]2 [G,C] E,2 [G,C] | %56
 C,2 [G,C] E,2 [G,C] | [F,,F,]2 [F,A,C] C,2 [F,A,C] | [F,,F,]2 [F,A,C] C,2 [F,A,C] | %59
 [C,,C,]2 [G,C] E,2 [G,C] | [C,,C,]2 [G,C] E,2 [G,C] | [C,,C,]2 [G,C] E,2 [G,C] | %62
 C,2 [_E,^F,A,] [E,F,A,]2 z | [C,,C,]2 [G,C] E,2 [G,C] | C,2 [G,C] E,2 [G,C] | %65
 [D,,D,]2 [^F,A,C] D,2 [F,A,C] | [D,,D,]2 [^F,A,C] D,2 [F,A,C] | %67
 [G,,G,]2 [A,,A,] [B,,B,]2 [A,,A,] | [G,,G,]2 [F,,F,] [E,,E,]2 [D,,D,] | [C,,C,]2 [G,C] E,2 [G,C] | %70
 C,2 [_E,^F,A,] [E,F,A,]2 z | [C,,C,]2 [G,C] E,2 [G,C] | C,2 [G,C] E,2 [G,C] | %73
 [F,,F,]2 [F,A,C] C,2 [F,A,C] | [F,,F,]2 [F,A,C] C,2 [F,A,C] | [C,,C,]2 [G,C] E,2 [G,C] | %76
 [C,,C,]2 [G,C] E,2 [G,C] | [F,,F,]2 [F,A,C] C,2 [F,A,C] | [F,,F,]2 [F,A,C] C,2 [F,A,C] | %79
 [C,,C,]2 [G,C] E,2 [G,C] | C,2 [G,C] E,2 [G,C] | [G,,,G,,]2 [F,G,B,] D,2 [F,G,B,] | %82
 [G,,,G,,]2 [F,G,B,] D,2 [F,G,B,] | z2 [A,,A,] [G,,G,]2 [E,,E,] | [C,,C,]3 !>![C,C]2 !>![B,,B,] || %85
 !>![A,,A,]3 z2 z | z2 z !>![C,C]2 !>![B,,B,] | !>![A,,A,]3 z2 z | z2 z !>![A,,A,]2 !>![B,,B,] | %89
 !>![C,C]3 z2 z | z2 z !>![C,C]2 !>![D,D] | !>![_E,_E]3 z2 z | z2 z !>![C,C]2 !>![D,D] | %93
 !>![E,E]2 !>![^D,^D] !>![E,E]3 | !>![E,,E,]2 !>![^D,,^D,] !>![E,,E,]3 | %95
 !>![E,E]2 !>![^D,^D] !>![E,E]3 | !>![E,,E,]2 !>![^D,,^D,] !>![E,,E,]3 | %97
 !>!E,!>!=F,!>!^F, !>!G,!>!^G,!>!A, | !>!^A,!>!B,!>!=C !>!^C!>!D!>!^D | !>!E z z !>![G,B,DF]3 | %100
 [G,,G,][A,,A,][G,,G,] [F,,F,][E,,E,][D,,D,] | [C,,C,]2 [G,C] E,2 [G,C] | %102
 C,2 [_E,^F,A,] [E,F,A,]2 z | [C,,C,]2 [G,C] E,2 [G,C] | C,2 [G,C] E,2 [G,C] | %105
 [F,,F,]2 [F,A,C] C,2 [F,A,C] | [F,,F,]2 [F,A,C] C,2 [F,A,C] | [C,,C,]2 [G,C] E,2 [G,C] | %108
 [C,,C,]2 [G,C] E,2 [G,C] | [C,,C,]2 [G,C] E,2 [G,C] | C,2 [_E,^F,A,] [E,F,A,]2 z | %111
 [C,,C,]2 [G,C] E,2 [G,C] | C,2 [G,C] E,2 [G,C] | [D,,D,]2 [^F,A,C] D,2 [F,A,C] | %114
 [D,,D,]2 [^F,A,C] D,2 [F,A,C] | [G,,G,]2 [A,,A,] [B,,B,]2 [A,,A,] | %116
 [G,,G,]2 [F,,F,] [E,,E,]2 [D,,D,] | [C,,C,]2 [G,C] E,2 [G,C] | C,2 [_E,^F,A,] [E,F,A,]2 z | %119
 [C,,C,]2 [G,C] E,2 [G,C] | C,2 [G,C] E,2 [G,C] | [F,,F,]2 [F,A,C] C,2 [F,A,C] | %122
 [F,,F,]2 [F,A,C] C,2 [F,A,C] | [C,,C,]2 [G,C] E,2 [G,C] | [C,,C,]2 [G,C] E,2 [G,C] | %125
 [F,,F,]2 [F,A,C] C,2 [F,A,C] | [F,,F,]2 [F,A,C] C,2 [F,A,C] | [C,,C,]2 [G,C] E,2 [G,C] | %128
 C,2 [G,C] E,2 [G,C] | [G,,,G,,]2 [F,G,B,] D,2 [F,G,B,] | [G,,,G,,]2 [F,G,B,] D,2 [F,G,B,] | %131
 z2 [A,,A,] [G,,G,]2 [E,,E,] | [C,,C,]3 !>![C,,C,]2 z |] %133

